Sources/FrostedUI/Resources/Icons.xcassets/cubeDisconnected12.imageset/cube-disconnected-12.svg

<svg width="12" height="12" viewBox="0 0 12 12" fill="none" xmlns="http://www.w3.org/2000/svg" data-fui-icon="true">
  <g clip-path="url(#clip0_1078_146)">
    <path
      fill-rule="evenodd"
      clip-rule="evenodd"
      d="M5.66792 1.59391C5.7678 1.53251 5.88275 1.5 6 1.5C6.11725 1.5 6.2322 1.53251 6.33208 1.59391L9.83194 3.74533C9.93637 3.80952 10 3.92332 10 4.0459V7.9541C10 8.07668 9.93637 8.19048 9.83194 8.25468L6.33208 10.4061C6.2322 10.4675 6.11725 10.5 6 10.5C5.88275 10.5 5.7678 10.4675 5.66792 10.4061L2.16806 8.25468C2.06363 8.19048 2 8.07668 2 7.9541V4.0459C2 3.92332 2.06363 3.80952 2.16806 3.74533L5.66792 1.59391ZM6 0C5.60541 0 5.21855 0.109397 4.88239 0.316037L1.38253 2.46746C0.834125 2.80457 0.5 3.40217 0.5 4.0459V7.9541C0.5 8.59783 0.834127 9.19543 1.38253 9.53255L4.88239 11.684C5.21855 11.8906 5.60541 12 6 12C6.39459 12 6.78145 11.8906 7.11761 11.684L10.6175 9.53255C11.1659 9.19543 11.5 8.59783 11.5 7.9541V4.0459C11.5 3.40217 11.1659 2.80457 10.6175 2.46746L7.11761 0.316038C6.78145 0.109398 6.39459 0 6 0ZM8.87027 5.255L6.74653 6.40437V8.93251C6.74653 9.34672 6.41075 9.68251 5.99653 9.68251C5.58232 9.68251 5.24653 9.34672 5.24653 8.93251V6.40246L3.12633 5.255C2.76205 5.05785 2.62656 4.60272 2.82371 4.23843C3.02086 3.87415 3.476 3.73866 3.84028 3.93581L5.9983 5.10373L8.15633 3.93581C8.52061 3.73866 8.97575 3.87415 9.1729 4.23843C9.37005 4.60272 9.23456 5.05785 8.87027 5.255Z"
      fill="currentColor"
    />
  </g>
  <defs>
    <clipPath id="clip0_1078_146"><path fill="currentColor" d="M0 0H12V12H0z" /></clipPath>
  </defs>
</svg>

<svg xmlns="http://www.w3.org/2000/svg" width="12" height="12" fill="none" data-fui-icon="true" viewBox="0 0 12 12"><g clip-path="url(#a)"><path fill="currentColor" fill-rule="evenodd" d="M5.668 1.594a.63.63 0 0 1 .664 0l3.5 2.151a.35.35 0 0 1 .168.3v3.91a.35.35 0 0 1-.168.3l-3.5 2.151a.63.63 0 0 1-.664 0l-3.5-2.151a.35.35 0 0 1-.168-.3v-3.91c0-.122.064-.235.168-.3zM6 0c-.395 0-.781.11-1.118.316l-3.5 2.151A1.85 1.85 0 0 0 .5 4.046v3.908c0 .644.334 1.241.883 1.579l3.5 2.151a2.13 2.13 0 0 0 2.235 0l3.5-2.151c.548-.338.882-.935.882-1.579V4.046c0-.644-.334-1.241-.883-1.579L7.118.316A2.13 2.13 0 0 0 6 0m2.87 5.255-2.123 1.15v2.528a.75.75 0 1 1-1.5 0v-2.53l-2.12-1.148a.75.75 0 0 1 .713-1.32l2.158 1.169 2.158-1.168a.75.75 0 0 1 .714 1.319" clip-rule="evenodd"/></g><defs><clipPath id="a"><path fill="currentColor" d="M0 0h12v12H0z"/></clipPath></defs></svg>
